flaticon/essential/share-2.svg

<svg xmlns="http://www.w3.org/2000/svg" width="32" height="32" viewBox="0 0 24 24">
    <path d="M22.476562 15.65625C22.660156 14.863281 22.757812 14.050781 22.757812 13.242188 22.757812 9.476562 20.84375 6.050781 17.632812 4.074219 17.4375 3.953125 17.183594 4.015625 17.0625 4.210938 16.941406 4.40625 17.003906 4.660156 17.199219 4.78125 20.160156 6.605469 21.929688 9.765625 21.929688 13.242188 21.929688 13.957031 21.847656 14.667969 21.695312 15.371094 21.503906 15.332031 21.304688 15.308594 21.101562 15.308594 19.507812 15.308594 18.207031 16.609375 18.207031 18.207031 18.207031 19.804688 19.507812 21.101562 21.101562 21.101562 22.699219 21.101562 24 19.804688 24 18.207031 24 17.105469 23.382812 16.148438 22.476562 15.65625zM21.101562 20.277344C19.960938 20.277344 19.035156 19.347656 19.035156 18.207031 19.035156 17.066406 19.960938 16.136719 21.101562 16.136719 22.246094 16.136719 23.171875 17.066406 23.171875 18.207031 23.171875 19.347656 22.246094 20.277344 21.101562 20.277344zM15.792969 22.421875C14.589844 22.917969 13.3125 23.171875 12 23.171875 9.359375 23.171875 6.816406 22.105469 4.957031 20.238281 5.472656 19.714844 5.792969 18.996094 5.792969 18.207031 5.792969 16.609375 4.492188 15.308594 2.898438 15.308594 1.300781 15.308594 0 16.609375 0 18.207031 0 19.804688 1.300781 21.101562 2.898438 21.101562 3.402344 21.101562 3.878906 20.972656 4.296875 20.742188 6.316406 22.816406 9.101562 24 12 24 13.421875 24 14.804688 23.726562 16.113281 23.183594 16.324219 23.097656 16.421875 22.855469 16.335938 22.644531 16.25 22.433594 16.007812 22.332031 15.792969 22.421875zM.828125 18.207031C.828125 17.066406 1.753906 16.136719 2.898438 16.136719 4.039062 16.136719 4.964844 17.066406 4.964844 18.207031 4.964844 19.347656 4.039062 20.277344 2.898438 20.277344 1.753906 20.277344.828125 19.347656.828125 18.207031zM1.65625 12.914062C1.664062 12.917969 1.675781 12.917969 1.683594 12.917969 1.898438 12.917969 2.082031 12.75 2.097656 12.53125 2.390625 8.355469 5.234375 4.867188 9.222656 3.710938 9.574219 4.914062 10.6875 5.792969 12 5.792969 13.597656 5.792969 14.898438 4.492188 14.898438 2.898438 14.898438 1.300781 13.597656 0 12 0 10.40625 0 9.109375 1.292969 9.105469 2.886719 4.726562 4.105469 1.59375 7.910156 1.273438 12.472656 1.253906 12.703125 1.425781 12.898438 1.65625 12.914062zM12 .828125C13.140625.828125 14.070312 1.753906 14.070312 2.898438 14.070312 4.039062 13.140625 4.964844 12 4.964844 10.859375 4.964844 9.929688 4.039062 9.929688 2.898438 9.929688 1.753906 10.859375.828125 12 .828125zM12 .828125"/>
</svg>

<svg xmlns="http://www.w3.org/2000/svg" width="32" height="32" viewBox="0 0 24 24">
    <path d="M22.477 15.656c.183-.793.28-1.605.28-2.414 0-3.765-1.913-7.191-5.124-9.168a.414.414 0 1 0-.434.707 9.873 9.873 0 0 1 4.73 8.461c0 .715-.081 1.426-.234 2.13a2.972 2.972 0 0 0-.593-.063 2.902 2.902 0 0 0-2.895 2.898c0 1.598 1.3 2.895 2.895 2.895A2.9 2.9 0 0 0 24 18.207a2.902 2.902 0 0 0-1.523-2.55zm-1.375 4.621a2.07 2.07 0 0 1 0-4.14 2.071 2.071 0 0 1 0 4.14zm0 0M15.793 22.422a9.906 9.906 0 0 1-3.793.75 9.966 9.966 0 0 1-7.043-2.934 2.89 2.89 0 0 0 .836-2.031c0-1.598-1.3-2.898-2.895-2.898A2.902 2.902 0 0 0 0 18.207a2.9 2.9 0 0 0 4.297 2.535A10.773 10.773 0 0 0 12 24c1.422 0 2.805-.273 4.113-.816a.412.412 0 1 0-.32-.762zM.828 18.207c0-1.14.926-2.07 2.07-2.07a2.07 2.07 0 0 1 0 4.14c-1.144 0-2.07-.93-2.07-2.07zm0 0M1.656 12.914c.008.004.02.004.028.004a.417.417 0 0 0 .414-.387 9.875 9.875 0 0 1 7.125-8.82A2.898 2.898 0 0 0 12 5.793c1.598 0 2.898-1.3 2.898-2.895C14.898 1.301 13.598 0 12 0a2.897 2.897 0 0 0-2.895 2.887 10.7 10.7 0 0 0-7.832 9.586c-.02.23.153.425.383.441zM12 .828c1.14 0 2.07.926 2.07 2.07a2.07 2.07 0 0 1-4.14 0c0-1.144.93-2.07 2.07-2.07zm0 0"/>
</svg>
